img/btn-favorite.svg

<svg width="33" height="33" viewBox="0 0 33 33" fill="none" xmlns="http://www.w3.org/2000/svg">
<g clip-path="url(#clip0_120_764)">
<path d="M22.6875 4.125C20.295 4.125 17.9987 5.23875 16.5 6.99875C15.0012 5.23875 12.705 4.125 10.3125 4.125C6.0775 4.125 2.75 7.4525 2.75 11.6875C2.75 16.885 7.425 21.12 14.5062 27.555L16.5 29.3563L18.4937 27.5413C25.575 21.12 30.25 16.885 30.25 11.6875C30.25 7.4525 26.9225 4.125 22.6875 4.125ZM16.6375 25.5062L16.5 25.6437L16.3625 25.5062C9.8175 19.58 5.5 15.6613 5.5 11.6875C5.5 8.9375 7.5625 6.875 10.3125 6.875C12.43 6.875 14.4925 8.23625 15.2212 10.12H17.7925C18.5075 8.23625 20.57 6.875 22.6875 6.875C25.4375 6.875 27.5 8.9375 27.5 11.6875C27.5 15.6613 23.1825 19.58 16.6375 25.5062Z" fill="#3670C7"/>
</g>
<defs>
<clipPath id="clip0_120_764">
<rect width="33" height="33" fill="white"/>
</clipPath>
</defs>
</svg>

<svg width="33" height="33" fill="none" xmlns="http://www.w3.org/2000/svg"><g clip-path="url(#a)"><path d="M22.688 4.125c-2.393 0-4.69 1.114-6.188 2.874-1.499-1.76-3.795-2.874-6.188-2.874-4.234 0-7.562 3.327-7.562 7.563 0 5.197 4.675 9.432 11.756 15.867l1.994 1.801 1.994-1.815C25.575 21.12 30.25 16.885 30.25 11.687c0-4.234-3.328-7.562-7.563-7.562Zm-6.05 21.381-.138.138-.137-.138C9.818 19.58 5.5 15.661 5.5 11.687c0-2.75 2.063-4.812 4.813-4.812 2.117 0 4.18 1.361 4.908 3.245h2.572c.715-1.884 2.777-3.245 4.895-3.245 2.75 0 4.812 2.063 4.812 4.813 0 3.973-4.317 7.892-10.863 13.818Z" fill="#3670C7"/></g><defs><clipPath id="a"><path fill="#fff" d="M0 0h33v33H0z"/></clipPath></defs></svg>
